X:1
T:Title
L:1/8
M:4/4
I:linebreak $
K:G
V:1 treble nm="Voice"
V:1
"G" BBdB"D" AABA |"G" GABG PE2 DC | B,CDG BBGB |"D" ABcA F4 |"C" c2 ec"G" BBcB |1"D" ABcA FGFE | %6
 DEFG ABcd |"C" edce"D" d2 dc :|2"D" ABcA F4 |"Dm" =fgfe dcAF |"G" GGBd g4 |:"G" B,EEF G2 GA | %12
 BBBc B2 BB | BEEF G2 GA | BBBc B2 BB |"G" BAAB"D" A2 AA | AGGF"G" G2 GG | GFFE"D" F2 FF |1 %18
"G" BG"D"AF"G" GAFG :|2"G" GFFE BAGF |"Em" EEGB e2 dc |] %21
